icons/plantation_worker.svg

<svg width="48" height="48" viewBox="0 0 48 48" fill="none" xmlns="http://www.w3.org/2000/svg">
<path fill-rule="evenodd" clip-rule="evenodd" d="M34 16C34 21.5228 29.5228 26 24 26C18.4772 26 14 21.5228 14 16C14 10.4772 18.4772 6 24 6C29.5228 6 34 10.4772 34 16ZM32 16C32 20.4183 28.4183 24 24 24C19.5817 24 16 20.4183 16 16C16 11.5817 19.5817 8 24 8C28.4183 8 32 11.5817 32 16Z" fill="black"/>
<path fill-rule="evenodd" clip-rule="evenodd" d="M17.8283 37.0587C17.7643 37.0379 17.7053 37.0183 17.6514 37H14V40H27.9709C28.0468 40.1525 28.1295 40.3063 28.2199 40.4592C28.4912 40.9181 28.9124 41.5084 29.5436 42L6 42V35.5384C6 31.3239 12.26 29.2643 18 28.4457C18.6776 28.3491 19.348 28.2697 20 28.2062V30C20 30.0726 20.0039 30.1443 20.0114 30.2149C20.1187 31.2184 20.9681 32 22 32H26C26.5323 32 27.016 31.792 27.3744 31.453C27.4066 31.5622 27.4415 31.6749 27.4794 31.7899C27.6296 32.246 27.8483 32.8086 28.1647 33.3642C27.5408 33.7665 26.7977 34 26 34H22C19.9475 34 18.256 32.454 18.0265 30.463C17.0061 30.6151 15.9839 30.8067 15 31.0413V35H18C18 35 20.5 36 24 36C25.1599 36 26.21 35.8902 27.0957 35.7433C26.998 36.1196 26.9726 36.5193 27.0305 36.9226L27.0345 36.9496L27.0307 36.9238L27.0313 36.9278L27.0322 36.9341L27.0345 36.9496L27.041 36.9917C27.0462 37.0246 27.0532 37.0673 27.062 37.1184C27.0797 37.2205 27.1053 37.3583 27.1399 37.5225C27.1549 37.5936 27.1719 37.6709 27.191 37.7535C26.2622 37.8969 25.1834 38 24 38C22.0634 38 20.4068 37.7239 19.2294 37.4468C18.639 37.3079 18.1639 37.1675 17.8283 37.0587ZM11.4721 32.1694C11.953 31.9633 12.4651 31.7735 13 31.5994V35C12.4477 35 12 35.4477 12 36V40L8 40V35.5384C8 34.4852 8.86717 33.2854 11.4721 32.1694Z" fill="black"/>
<path fill-rule="evenodd" clip-rule="evenodd" d="M34.246 26.6849C34.5221 27.0019 34.7953 27.2681 35.0009 27.4565C35.0003 27.4709 35 27.4854 35 27.5V29.4623C34.7607 29.0791 34.4307 28.6787 33.9778 28.4062C33.4836 28.1088 32.9308 28.0161 32.456 28.002C31.9736 27.9877 31.4959 28.0524 31.0915 28.1348C30.6831 28.218 30.3209 28.3251 30.0622 28.4106C29.9319 28.4537 29.8256 28.492 29.75 28.5203C29.7122 28.5344 29.682 28.5461 29.6601 28.5547L29.6337 28.5652L29.6255 28.5685L29.6226 28.5697L29.6215 28.5702C29.1974 28.7441 28.945 29.1848 29.0102 29.6385L29.0105 29.6401L29.0109 29.6431L29.0122 29.6519L29.0166 29.6802C29.0203 29.7036 29.0256 29.7362 29.0326 29.7769C29.0467 29.858 29.0678 29.9718 29.0968 30.1094C29.1545 30.3829 29.2456 30.7591 29.379 31.1644C29.5112 31.5657 29.6933 32.0215 29.9416 32.4415C30.1847 32.8528 30.5313 33.2984 31.0222 33.5938C31.5164 33.8912 32.0692 33.9839 32.544 33.998C33.0264 34.0123 33.5041 33.9476 33.9085 33.8652C34.3169 33.782 34.6791 33.6749 34.9378 33.5894L35 33.5686V36.4623C34.7607 36.0791 34.4307 35.6787 33.9778 35.4062C33.4836 35.1088 32.9308 35.0161 32.456 35.002C31.9736 34.9877 31.4959 35.0524 31.0915 35.1348C30.6831 35.218 30.3209 35.3251 30.0622 35.4106C29.9319 35.4537 29.8256 35.492 29.75 35.5203L29.7028 35.5382L29.6601 35.5547L29.6337 35.5652L29.6255 35.5685L29.6226 35.5697L29.6215 35.5702C29.1974 35.7441 28.945 36.1848 29.0102 36.6385L29.0105 36.6401L29.0109 36.6431L29.0122 36.6519L29.0166 36.6802C29.0203 36.7036 29.0256 36.7362 29.0326 36.7769C29.0467 36.858 29.0678 36.9718 29.0968 37.1094C29.1545 37.3829 29.2456 37.7591 29.379 38.1644C29.5112 38.5657 29.6933 39.0215 29.9416 39.4415C30.1847 39.8528 30.5313 40.2984 31.0222 40.5938C31.5164 40.8912 32.0692 40.9839 32.544 40.998C33.0264 41.0123 33.5041 40.9476 33.9085 40.8652C34.3169 40.782 34.6791 40.6749 34.9378 40.5894L35 40.5686V42C35 42.5523 35.4477 43 36 43C36.5523 43 37 42.5523 37 42V40.846L37.0445 40.8555L37.0915 40.8652C37.4959 40.9476 37.9736 41.0123 38.456 40.998C38.9308 40.9839 39.4836 40.8912 39.9778 40.5938C40.4687 40.2984 40.8153 39.8528 41.0584 39.4415C41.3067 39.0215 41.4888 38.5657 41.621 38.1644C41.7544 37.7591 41.8455 37.3829 41.9032 37.1094C41.9322 36.9718 41.9533 36.858 41.9674 36.7769C41.9744 36.7362 41.9797 36.7036 41.9834 36.6802L41.9878 36.6519L41.9891 36.6431L41.9898 36.6385C42.055 36.1848 41.8026 35.7441 41.3785 35.5702L41.3774 35.5697L41.3745 35.5685L41.3663 35.5652L41.3399 35.5547C41.318 35.5461 41.2878 35.5344 41.25 35.5203C41.1744 35.492 41.0681 35.4537 40.9378 35.4106C40.6791 35.3251 40.3169 35.218 39.9085 35.1348C39.5041 35.0524 39.0264 34.9877 38.544 35.002C38.0692 35.0161 37.5164 35.1088 37.0222 35.4062L37 35.4197V33.846C37.0264 33.8517 37.0531 33.8574 37.08 33.8629L37.0915 33.8652C37.4959 33.9476 37.9736 34.0123 38.456 33.998C38.9308 33.9839 39.4836 33.8912 39.9778 33.5938C40.4687 33.2984 40.8153 32.8528 41.0584 32.4415C41.3067 32.0215 41.4888 31.5657 41.621 31.1644C41.7544 30.7591 41.8455 30.3829 41.9032 30.1094C41.9322 29.9718 41.9533 29.858 41.9674 29.7769C41.9744 29.7362 41.9797 29.7036 41.9834 29.6802L41.9878 29.6519L41.9891 29.6431L41.9898 29.6385C42.055 29.1848 41.8026 28.7441 41.3785 28.5702L41.3774 28.5697L41.3745 28.5685L41.3663 28.5652L41.3399 28.5547C41.318 28.5461 41.2878 28.5344 41.25 28.5203C41.1744 28.492 41.0681 28.4537 40.9378 28.4106C40.6791 28.3251 40.3169 28.218 39.9085 28.1348C39.5041 28.0524 39.0264 27.9877 38.544 28.002C38.0692 28.0161 37.5164 28.1088 37.0222 28.4062L37 28.4197V27.5L37 27.4954C36.9999 27.4824 36.9996 27.4694 36.9991 27.4565C37.2047 27.2681 37.4779 27.0019 37.754 26.6849C38.0331 26.3645 38.333 25.972 38.5674 25.5379C38.7978 25.1113 39 24.5799 39 24C39 23.4201 38.7978 22.8887 38.5674 22.4621C38.333 22.028 38.0331 21.6355 37.754 21.3151C37.4724 20.9918 37.1938 20.7214 36.9869 20.5324C36.8827 20.4372 36.795 20.3612 36.7319 20.3078C36.7003 20.2811 36.6748 20.2599 36.6563 20.2447L36.6339 20.2265L36.6269 20.2209L36.6235 20.2182C36.259 19.9281 35.7414 19.9277 35.3769 20.2179L35.3755 20.2189L35.3731 20.2209L35.3661 20.2265L35.3437 20.2447C35.3252 20.2599 35.2997 20.2811 35.2681 20.3078C35.205 20.3612 35.1173 20.4372 35.0131 20.5324C34.8062 20.7214 34.5276 20.9918 34.246 21.3151C33.9669 21.6355 33.667 22.028 33.4326 22.4621C33.2022 22.8887 33 23.4201 33 24C33 24.5799 33.2022 25.1113 33.4326 25.5379C33.667 25.972 33.9669 26.3645 34.246 26.6849ZM38.6034 37.0011C38.3191 37.0096 38.1457 37.0643 38.0533 37.1199C37.9576 37.1775 37.8186 37.3135 37.6633 37.5762C37.5132 37.8301 37.3843 38.1405 37.2787 38.4612C37.2369 38.5882 37.2 38.7128 37.1678 38.8309C37.2704 38.8573 37.3788 38.8827 37.4907 38.9055C37.8052 38.9695 38.1198 39.0071 38.3966 38.9989C38.6809 38.9904 38.8543 38.9357 38.9467 38.8801C39.0424 38.8225 39.1814 38.6865 39.3367 38.4238C39.4868 38.1699 39.6157 37.8595 39.7213 37.5388C39.7631 37.4118 39.8 37.2872 39.8322 37.1691C39.7296 37.1427 39.6212 37.1173 39.5093 37.0945C39.1948 37.0305 38.8802 36.9929 38.6034 37.0011ZM31.4907 37.0945C31.3788 37.1173 31.2704 37.1427 31.1678 37.1691C31.2 37.2872 31.2369 37.4118 31.2787 37.5388C31.3843 37.8595 31.5132 38.1699 31.6633 38.4238C31.8186 38.6865 31.9576 38.8225 32.0533 38.8801C32.1457 38.9357 32.3191 38.9904 32.6034 38.9989C32.8802 39.0071 33.1948 38.9695 33.5093 38.9055C33.6212 38.8827 33.7296 38.8573 33.8322 38.8309C33.8 38.7128 33.7631 38.5882 33.7213 38.4612C33.6157 38.1405 33.4868 37.8301 33.3367 37.5762C33.1814 37.3135 33.0424 37.1775 32.9467 37.1199C32.8543 37.0643 32.6809 37.0096 32.3966 37.0011C32.1198 36.9929 31.8052 37.0305 31.4907 37.0945ZM38.6034 30.0011C38.3191 30.0096 38.1457 30.0643 38.0533 30.1199C37.9576 30.1775 37.8186 30.3135 37.6633 30.5762C37.5132 30.8301 37.3843 31.1405 37.2787 31.4612C37.2369 31.5882 37.2 31.7128 37.1678 31.8309C37.2704 31.8573 37.3788 31.8827 37.4907 31.9055C37.8052 31.9695 38.1198 32.0071 38.3966 31.9989C38.6809 31.9904 38.8543 31.9357 38.9467 31.8801C39.0424 31.8225 39.1814 31.6865 39.3367 31.4238C39.4868 31.1699 39.6157 30.8595 39.7213 30.5388C39.7631 30.4118 39.8 30.2872 39.8322 30.1691C39.7296 30.1427 39.6212 30.1173 39.5093 30.0945C39.1948 30.0305 38.8802 29.9929 38.6034 30.0011ZM36.246 25.3712C36.1634 25.466 36.0804 25.5557 36 25.639C35.9196 25.5557 35.8366 25.466 35.754 25.3712C35.5331 25.1175 35.333 24.8481 35.1924 24.5877C35.0478 24.3198 35 24.1241 35 24C35 23.8759 35.0478 23.6802 35.1924 23.4123C35.333 23.1519 35.5331 22.8825 35.754 22.6288C35.8366 22.534 35.9196 22.4443 36 22.361C36.0804 22.4443 36.1634 22.534 36.246 22.6288C36.4669 22.8825 36.667 23.1519 36.8076 23.4123C36.9522 23.6802 37 23.8759 37 24C37 24.1241 36.9522 24.3198 36.8076 24.5877C36.667 24.8481 36.4669 25.1175 36.246 25.3712ZM31.1678 30.1691C31.2704 30.1427 31.3788 30.1173 31.4907 30.0945C31.8052 30.0305 32.1198 29.9929 32.3966 30.0011C32.6809 30.0096 32.8543 30.0643 32.9467 30.1199C33.0424 30.1775 33.1814 30.3135 33.3367 30.5762C33.4868 30.8301 33.6157 31.1405 33.7213 31.4612C33.7631 31.5882 33.8 31.7128 33.8322 31.8309C33.7296 31.8573 33.6212 31.8827 33.5093 31.9055C33.1948 31.9695 32.8802 32.0071 32.6034 31.9989C32.3191 31.9904 32.1457 31.9357 32.0533 31.8801C31.9576 31.8225 31.8186 31.6865 31.6633 31.4238C31.5132 31.1699 31.3843 30.8595 31.2787 30.5388C31.2369 30.4118 31.2 30.2872 31.1678 30.1691Z" fill="black"/>
</svg>

<svg
  xmlns="http://www.w3.org/2000/svg"
  width="24"
  height="24"
  viewBox="0 0 24 24"
  fill="none"
  stroke="currentColor"
  stroke-width="2"
  stroke-linecap="round"
  stroke-linejoin="round"
>
  <path
    fill-rule="evenodd"
    d="M34 16c0 5.523-4.477 10-10 10s-10-4.477-10-10S18.477 6 24 6s10 4.477 10 10m-2 0a8 8 0 1 1-16 0 8 8 0 0 1 16 0"
    clip-rule="evenodd"
  />
  <path
    fill-rule="evenodd"
    d="M17.828 37.059 17.651 37H14v3h13.97q.115.23.25.46c.271.458.692 1.048 1.324 1.54H6v-6.462c0-4.214 6.26-6.274 12-7.092a45 45 0 0 1 2-.24V30q0 .109.011.215A2 2 0 0 0 22 32h4c.532 0 1.016-.208 1.374-.547q.05.165.105.337c.15.456.37 1.019.686 1.574A4 4 0 0 1 26 34h-4a4 4 0 0 1-3.974-3.537c-1.02.152-2.042.344-3.026.578V35h3s2.5 1 6 1c1.16 0 2.21-.11 3.096-.257a3 3 0 0 0-.066 1.18l.005.027-.004-.026v.004l.001.006.003.016.006.042a9 9 0 0 0 .099.53l.051.232c-.929.143-2.008.246-3.191.246-1.937 0-3.593-.276-4.77-.553a18 18 0 0 1-1.402-.388m-6.356-4.89q.723-.308 1.528-.57V35a1 1 0 0 0-1 1v4H8v-4.462c0-1.053.867-2.253 3.472-3.369"
    clip-rule="evenodd"
  />
  <path
    fill-rule="evenodd"
    d="M34.246 26.685c.276.317.55.583.755.771L35 27.5v1.962c-.24-.383-.57-.783-1.022-1.056-.494-.297-1.047-.39-1.522-.404-.482-.014-.96.05-1.365.133a9 9 0 0 0-1.43.42l-.027.01-.009.003-.002.002h-.002a1 1 0 0 0-.61 1.069v.004l.001.009.005.028a7 7 0 0 0 .08.43c.057.273.149.65.282 1.054.132.402.314.858.563 1.277.243.412.59.857 1.08 1.153.494.297 1.047.39 1.522.404.482.014.96-.05 1.364-.133.409-.083.771-.19 1.03-.276l.062-.02v2.893c-.24-.383-.57-.783-1.022-1.056-.494-.297-1.047-.39-1.522-.404-.482-.014-.96.05-1.365.133a9 9 0 0 0-1.341.385l-.047.018-.043.017-.026.01-.009.004h-.002l-.002.001a1 1 0 0 0-.61 1.069v.004l.001.009.005.028a7 7 0 0 0 .08.43c.057.273.149.65.282 1.054.132.402.314.858.563 1.277.243.412.59.857 1.08 1.153.494.297 1.047.39 1.522.404.482.014.96-.05 1.364-.133.409-.083.771-.19 1.03-.276l.062-.02V42a1 1 0 1 0 2 0v-1.154l.044.01.048.01c.404.082.882.146 1.364.132.475-.014 1.028-.107 1.522-.404.49-.296.837-.741 1.08-1.153.249-.42.43-.875.563-1.277a10 10 0 0 0 .362-1.484l.005-.028.001-.009v-.005a1 1 0 0 0-.61-1.068h-.002l-.003-.002-.008-.003-.026-.01-.09-.035a9.152 9.152 0 0 0-1.342-.386 6 6 0 0 0-1.364-.132c-.475.014-1.028.107-1.522.404L37 35.42v-1.574l.08.017.012.002c.404.083.882.147 1.364.133.475-.014 1.028-.107 1.522-.404.49-.296.837-.741 1.08-1.153.249-.42.43-.875.563-1.277a10 10 0 0 0 .362-1.484l.005-.028.001-.009v-.005a1 1 0 0 0-.61-1.068h-.002l-.003-.002-.008-.003-.026-.01-.09-.035a9.152 9.152 0 0 0-1.342-.386 6 6 0 0 0-1.364-.132c-.475.014-1.028.107-1.522.404L37 28.42v-.964c.205-.188.478-.454.754-.771.28-.32.579-.713.813-1.147.23-.427.433-.958.433-1.538s-.202-1.111-.433-1.538a6.5 6.5 0 0 0-.813-1.147 10 10 0 0 0-1.098-1.07l-.022-.018-.007-.006-.004-.003a1 1 0 0 0-1.246 0h-.002l-.002.003-.007.006-.022.018a7 7 0 0 0-.33.287c-.208.19-.486.46-.768.783-.28.32-.579.713-.813 1.147-.23.427-.433.958-.433 1.538s.202 1.111.433 1.538c.234.434.534.826.813 1.147M38.603 37c-.284.009-.457.063-.55.119-.095.058-.234.194-.39.456a4.6 4.6 0 0 0-.384.885 8 8 0 0 0-.111.37q.153.04.323.075c.314.063.629.101.906.093.284-.009.457-.063.55-.119.095-.058.234-.194.39-.456a4.6 4.6 0 0 0 .384-.885q.063-.192.111-.37a7 7 0 0 0-.323-.075 4 4 0 0 0-.906-.093m-7.112.093q-.168.035-.323.075.048.178.11.37c.106.32.235.63.385.885.156.263.295.398.39.456.093.056.266.11.55.119.277.008.592-.03.906-.093q.168-.035.323-.075a8 8 0 0 0-.11-.37 4.6 4.6 0 0 0-.385-.885c-.156-.263-.295-.398-.39-.456-.093-.056-.266-.11-.55-.119a4 4 0 0 0-.906.093m7.112-7.093c-.284.009-.457.063-.55.119-.095.057-.234.194-.39.456a4.6 4.6 0 0 0-.384.885 8 8 0 0 0-.111.37q.153.04.323.075c.314.064.629.101.906.093.284-.009.457-.063.55-.119.095-.057.234-.194.39-.456a4.6 4.6 0 0 0 .384-.885q.063-.192.111-.37a7 7 0 0 0-.323-.075 4 4 0 0 0-.906-.093m-2.357-4.63a7 7 0 0 1-.246.268 7 7 0 0 1-.246-.268 4.5 4.5 0 0 1-.562-.783C35.048 24.32 35 24.124 35 24s.048-.32.192-.588c.141-.26.341-.53.562-.783q.125-.143.246-.268.12.125.246.268c.22.253.421.523.562.783.144.268.192.464.192.588s-.048.32-.192.588c-.141.26-.341.53-.562.783m-5.078 4.798q.153-.04.323-.075c.314-.064.629-.101.906-.093.284.009.457.063.55.119.095.057.234.194.39.456.15.254.279.564.384.885q.063.192.111.37a7 7 0 0 1-.323.075c-.314.064-.629.101-.906.093-.284-.009-.457-.063-.55-.119-.095-.057-.234-.194-.39-.456a4.6 4.6 0 0 1-.384-.885 8 8 0 0 1-.111-.37"
    clip-rule="evenodd"
  />
</svg>
